svg/diagnostic.svg

<svg width="24" height="24" viewBox="0 0 24 24"  xmlns="http://www.w3.org/2000/svg">
<path fill-rule="evenodd" clip-rule="evenodd" d="M14.7 14H15.5L20.5 19L19 20.5L14 15.5V14.7L13.7 14.4C12.6 15.4 11.1 16 9.5 16C5.9 16 3 13.1 3 9.5C3 5.9 5.9 3 9.5 3C13.1 3 16 5.9 16 9.5C16 11.1 15.4 12.6 14.4 13.7L14.7 14ZM5.02742 10.0039C5.27505 12.2634 7.17045 14 9.5 14C11.8309 14 13.7271 12.2614 13.973 10H12.2614L10.2324 13.0085L8.22691 9.22168L7.81552 10.0039H5.02742ZM5.10889 8.50391C5.55774 6.48924 7.34271 5 9.5 5C11.6559 5 13.44 6.48732 13.8902 8.5H11.4638L10.3873 10.0961L8.22229 6.00793L6.90961 8.50391H5.10889Z" />
</svg>

<svg width="24" height="24" viewBox="0 0 24 24" xmlns="http://www.w3.org/2000/svg"><path fill-rule="evenodd" clip-rule="evenodd" d="M14.7 14h.8l5 5-1.5 1.5-5-5v-.8l-.3-.3c-1.1 1-2.6 1.6-4.2 1.6C5.9 16 3 13.1 3 9.5S5.9 3 9.5 3 16 5.9 16 9.5c0 1.6-.6 3.1-1.6 4.2l.3.3zm-9.673-3.996A4.48 4.48 0 0 0 9.5 14a4.48 4.48 0 0 0 4.473-4h-1.712l-2.029 3.008-2.005-3.786-.411.782H5.027zm.082-1.5A4.479 4.479 0 0 1 9.5 5a4.479 4.479 0 0 1 4.39 3.5h-2.426l-1.077 1.596-2.165-4.088L6.91 8.504H5.109z"/></svg>
